packages/assets/static/images/icons/subway.svg

<svg width="24" height="24" viewBox="0 0 24 24" xmlns="http://www.w3.org/2000/svg">
<path d="M20.9998 9.75V20.25C20.9998 20.4489 20.9207 20.6397 20.7801 20.7803C20.6394 20.921 20.4487 21 20.2498 21C20.0508 21 19.8601 20.921 19.7194 20.7803C19.5788 20.6397 19.4998 20.4489 19.4998 20.25V9.75C19.4983 8.35807 18.9447 7.02358 17.9604 6.03933C16.9762 5.05509 15.6417 4.50149 14.2498 4.5H9.74976C8.35783 4.50149 7.02333 5.05509 6.03909 6.03933C5.05485 7.02358 4.50124 8.35807 4.49976 9.75V20.25C4.49976 20.4489 4.42074 20.6397 4.28009 20.7803C4.13943 20.921 3.94867 21 3.74976 21C3.55084 21 3.36008 20.921 3.21943 20.7803C3.07877 20.6397 2.99976 20.4489 2.99976 20.25V9.75C3.00174 7.9604 3.71354 6.24466 4.97898 4.97922C6.24442 3.71378 7.96015 3.00199 9.74976 3H14.2498C16.0394 3.00199 17.7551 3.71378 19.0205 4.97922C20.286 6.24466 20.9978 7.9604 20.9998 9.75ZM17.2498 9.75V16.5C17.2497 17.02 17.0695 17.524 16.7398 17.9262C16.4101 18.3283 15.9512 18.6039 15.4413 18.7059L15.671 19.1644C15.7151 19.2525 15.7414 19.3485 15.7483 19.4468C15.7553 19.5451 15.7429 19.6438 15.7117 19.7373C15.6806 19.8308 15.6313 19.9173 15.5667 19.9917C15.5021 20.0662 15.4235 20.1272 15.3354 20.1712C15.2472 20.2153 15.1513 20.2416 15.053 20.2486C14.9546 20.2556 14.8559 20.2431 14.7624 20.212C14.6689 20.1808 14.5825 20.1315 14.508 20.067C14.4336 20.0024 14.3726 19.9238 14.3285 19.8356L13.7866 18.75H10.2129L9.67101 19.8356C9.58199 20.0137 9.4259 20.149 9.23708 20.212C9.04825 20.2749 8.84216 20.2603 8.66413 20.1712C8.4861 20.0822 8.35073 19.9261 8.28779 19.7373C8.22485 19.5485 8.23949 19.3424 8.32851 19.1644L8.55819 18.7059C8.04827 18.6039 7.58944 18.3283 7.25974 17.9262C6.93004 17.524 6.74983 17.02 6.74976 16.5V9.75C6.74976 9.15326 6.98681 8.58097 7.40877 8.15901C7.83072 7.73705 8.40302 7.5 8.99976 7.5H14.9998C15.5965 7.5 16.1688 7.73705 16.5907 8.15901C17.0127 8.58097 17.2498 9.15326 17.2498 9.75ZM8.24976 9.75V14.25H15.7498V9.75C15.7498 9.55109 15.6707 9.36032 15.5301 9.21967C15.3894 9.07902 15.1987 9 14.9998 9H8.99976C8.80084 9 8.61008 9.07902 8.46943 9.21967C8.32877 9.36032 8.24976 9.55109 8.24976 9.75ZM11.2498 15.75V17.25H12.7498V15.75H11.2498ZM8.99976 17.25H9.74976V15.75H8.24976V16.5C8.24976 16.6989 8.32877 16.8897 8.46943 17.0303C8.61008 17.171 8.80084 17.25 8.99976 17.25ZM15.7498 16.5V15.75H14.2498V17.25H14.9998C15.1987 17.25 15.3894 17.171 15.5301 17.0303C15.6707 16.8897 15.7498 16.6989 15.7498 16.5Z"/>
</svg>

<svg viewBox="0 0 24 24" xmlns="http://www.w3.org/2000/svg" aria-hidden="true" fill="currentColor"><path d="M21 9.75v10.5a.75.75 0 0 1-1.5 0V9.75a5.256 5.256 0 0 0-5.25-5.25h-4.5A5.256 5.256 0 0 0 4.5 9.75v10.5a.75.75 0 1 1-1.5 0V9.75A6.757 6.757 0 0 1 9.75 3h4.5A6.757 6.757 0 0 1 21 9.75m-3.75 0v6.75a2.25 2.25 0 0 1-1.809 2.206l.23.458a.75.75 0 0 1-.336 1.007.75.75 0 0 1-1.007-.335l-.541-1.086h-3.574l-.542 1.086a.75.75 0 1 1-1.342-.672l.23-.458a2.25 2.25 0 0 1-1.81-2.206V9.75A2.25 2.25 0 0 1 9 7.5h6a2.25 2.25 0 0 1 2.25 2.25m-9 0v4.5h7.5v-4.5A.75.75 0 0 0 15 9H9a.75.75 0 0 0-.75.75m3 6v1.5h1.5v-1.5zM9 17.25h.75v-1.5h-1.5v.75a.75.75 0 0 0 .75.75m6.75-.75v-.75h-1.5v1.5H15a.75.75 0 0 0 .75-.75"/></svg>
